X: 6
T: When Sick Is It Tea That You Want?
R: jig
M: 6/8
L: 1/8
K: Dmaj
B|:Add dcB|ABA AFA|dcd d2 e|fdB BdB|
~A3 dcB|~A3 AFA|dfd ege|1 edc d2 B:|2 edc d2 f/g/||
|:afd dcd|BGG G2 g/a/|bge e^de|cAA A2G|
Add dcB|ABA AFA|dfd ege|1 edc d2 f/g/:|2 edc d2||


Tune 427	Setting 427

